packages/core/assets/Icons/reload.svg

<svg viewBox="0 0 20 20" fill="none" xmlns="http://www.w3.org/2000/svg">
<path d="M10 16.6667C8.13893 16.6667 6.56254 16.0209 5.27087 14.7292C3.97921 13.4375 3.33337 11.8612 3.33337 10C3.33337 8.13893 3.97921 6.56254 5.27087 5.27087C6.56254 3.97921 8.13893 3.33337 10 3.33337C10.9584 3.33337 11.875 3.53129 12.75 3.92712C13.625 4.32296 14.375 4.88893 15 5.62504V4.16671C15 3.9306 15.0799 3.73268 15.2396 3.57296C15.3993 3.41324 15.5973 3.33337 15.8334 3.33337C16.0695 3.33337 16.2674 3.41324 16.4271 3.57296C16.5868 3.73268 16.6667 3.9306 16.6667 4.16671V8.33337C16.6667 8.56949 16.5868 8.7674 16.4271 8.92712C16.2674 9.08685 16.0695 9.16671 15.8334 9.16671H11.6667C11.4306 9.16671 11.2327 9.08685 11.073 8.92712C10.9132 8.7674 10.8334 8.56949 10.8334 8.33337C10.8334 8.09726 10.9132 7.89935 11.073 7.73962C11.2327 7.5799 11.4306 7.50004 11.6667 7.50004H14.3334C13.8889 6.72226 13.2813 6.11115 12.5105 5.66671C11.7396 5.22226 10.9028 5.00004 10 5.00004C8.61115 5.00004 7.4306 5.48615 6.45837 6.45837C5.48615 7.4306 5.00004 8.61115 5.00004 10C5.00004 11.3889 5.48615 12.5695 6.45837 13.5417C7.4306 14.5139 8.61115 15 10 15C10.9445 15 11.8091 14.7605 12.5938 14.2813C13.3785 13.8021 13.9862 13.1598 14.4167 12.3542C14.5278 12.1598 14.6841 12.0243 14.8855 11.948C15.0868 11.8716 15.2917 11.8681 15.5 11.9375C15.7223 12.007 15.882 12.1528 15.9792 12.375C16.0764 12.5973 16.0695 12.8056 15.9584 13C15.3889 14.1112 14.5764 15 13.5209 15.6667C12.4653 16.3334 11.2917 16.6667 10 16.6667Z" fill="currentColor"/>
</svg>

<svg xmlns="http://www.w3.org/2000/svg" width="20" height="20" fill="none" viewBox="0 0 20 20">
  <path fill="#201F1F" d="M10 16.667c-1.861 0-3.437-.646-4.73-1.938C3.98 13.438 3.334 11.861 3.334 10c0-1.861.646-3.437 1.938-4.73C6.563 3.98 8.139 3.334 10 3.334c.958 0 1.875.198 2.75.594A6.352 6.352 0 0 1 15 5.625V4.167c0-.236.08-.434.24-.594.16-.16.357-.24.593-.24.237 0 .434.08.594.24.16.16.24.358.24.594v4.166c0 .236-.08.434-.24.594a.806.806 0 0 1-.594.24h-4.166a.806.806 0 0 1-.594-.24.806.806 0 0 1-.24-.594c0-.236.08-.434.24-.593.16-.16.358-.24.594-.24h2.666a4.864 4.864 0 0 0-1.822-1.833A4.94 4.94 0 0 0 10 5c-1.389 0-2.57.486-3.542 1.458C5.486 7.431 5 8.611 5 10c0 1.389.486 2.57 1.458 3.542C7.431 14.514 8.611 15 10 15c.944 0 1.81-.24 2.594-.719a4.96 4.96 0 0 0 1.823-1.927.892.892 0 0 1 .469-.406.89.89 0 0 1 .614-.01.751.751 0 0 1 .48.437c.096.222.09.43-.022.625a6.73 6.73 0 0 1-2.437 2.667c-1.056.666-2.23 1-3.521 1Z"/>
</svg>
